X:153
T:Tatter Jack Walsh
R:jig
D:Gerry O'Connor
Z:id:hn-jig-153
M:6/8
K:Dmix
~f3 ded|cAB c2A|dcA GFG|Add efg|
fef ded|cAB c2A|dcA GFG|1 Ad^c d2e:|2 Ad^c d2A||
|:dfa afd|dfa a2f|~g3 gag|e^cd efg|
fgf ded|cAB c2A|dcA GFG|1 Ad^c d2A:|2 Ad^c d2e||
P:Variations:
|:faf ded|cAB cde|dcA GFG|Add efg|
fdd ded|cAB c2e|dcA GFG|1 Ad^c d2e:|2 Ad^c d2A||
dfa dfa|dfa agf|~g3 gag|e^cd e2g|f/g/af ded|cAB cde|dcA GFG|Ad^c d2A||
dfa afa|dfa afa|~g3 gag|gef gfg|afd fed|cAB cde|dcA GFG|Ad^c d2e||

